imgs/altlogo_black_mobile.svg

<svg height="64" viewBox="0 0 148 64" width="148" xmlns="http://www.w3.org/2000/svg" xmlns:xlink="http://www.w3.org/1999/xlink"><defs><path id="a" d="m11.8512732.1083411h15.590265l11.5398529 61.4294035h-12.6097731l-2.0634174-12.9684296h-9.0943212l-2.1398403 12.9684296h-12.91546457zm11.1577386 40.3462255-3.2861832-23.9650512-3.2861833 23.9650512zm22.2390544-40.3462255h13.6796933v52.2529124h14.2146533v9.1764911h-27.8943466z"/><path id="b" d="m82.5678997 10.1948975h-9.4764356v-10.0865564h32.6325639v10.0865564h-9.4000122v51.3428471h-13.7561161z"/><path id="c" d="m.38960326.5549757h7.2456087v29.7713742h7.52895654v5.2283546h-14.77456524zm22.54639134 0h8.2575652l6.1122174 34.9997288h-6.6789131l-1.092913-7.3888317h-4.8169131l-1.1333913 7.3888317h-6.840826zm5.9098261 22.9874762-1.7405653-13.6542152-1.7405652 13.6542152z"/><path id="d" d="m42.6489076.5549757h8.5409131c3.2652627 0 5.8221139.61933057 7.6706304 1.85801029s2.7727609 3.58637468 2.7727609 7.0431553c0 4.23455621-1.6056217 6.66866941-4.8169131 7.30241251 1.9429662.2592586 3.4001691 1.1234408 4.3716522 2.5925725.9714831 1.4691318 1.4572174 3.4855569 1.4572174 6.0493359 0 6.7695287-3.3056916 10.1542423-9.9171739 10.1542423h-10.079087zm8.6623478 13.9998915c1.5381816 0 2.5838596-.3744789 3.1370653-1.1234481.5532056-.7489691.8298043-1.9156151.8298043-3.49997285 0-1.38271225-.3508081-2.4269324-1.0524348-3.13269178-.7016267-.70575937-1.7270657-1.05863377-3.0763478-1.05863377h-1.2548261v8.8147465zm.1214348 15.5986446c1.5381816 0 2.6243374-.4104866 3.2585-1.231472s.9512391-2.1100571.9512391-3.867254c0-1.9876488-.3170765-3.3847434-.9512391-4.1913255s-1.733811-1.2098672-3.2989782-1.2098672h-1.4976957v10.4999187z"/></defs><g fill-rule="evenodd"><g transform="translate(0 2)"><use xlink:href="#a"/><use xlink:href="#a"/></g><g transform="translate(0 2)"><use xlink:href="#b"/><use xlink:href="#b"/></g><g transform="matrix(0 -1 1 0 111.5 63.5)"><use xlink:href="#c"/><use xlink:href="#c"/><use xlink:href="#d"/><use xlink:href="#d"/></g></g></svg>

<?xml version="1.0" encoding="UTF-8"?>
<svg width="148px" height="64px" viewBox="0 0 148 64" version="1.1" xmlns="http://www.w3.org/2000/svg" xmlns:xlink="http://www.w3.org/1999/xlink">
    <!-- Generator: Sketch 51.2 (57519) - http://www.bohemiancoding.com/sketch -->
    <title>altlogo_black copy</title>
    <desc>Created with Sketch.</desc>
    <defs>
        <path d="M11.8512732,0.1083411 L27.4415382,0.1083411 L38.9813911,61.5377446 L26.371618,61.5377446 L24.3082006,48.569315 L15.2138794,48.569315 L13.0740391,61.5377446 L0.158574527,61.5377446 L11.8512732,0.1083411 Z M23.0090118,40.4545666 L19.7228286,16.4895154 L16.4366453,40.4545666 L23.0090118,40.4545666 Z M45.2480662,0.1083411 L58.9277595,0.1083411 L58.9277595,52.3612535 L73.1424128,52.3612535 L73.1424128,61.5377446 L45.2480662,61.5377446 L45.2480662,0.1083411 Z" id="path-1"></path>
        <polygon id="path-2" points="82.5678997 10.1948975 73.0914641 10.1948975 73.0914641 0.1083411 105.724028 0.1083411 105.724028 10.1948975 96.3240158 10.1948975 96.3240158 61.5377446 82.5678997 61.5377446"></polygon>
        <path d="M0.389603261,0.554975699 L7.63521196,0.554975699 L7.63521196,30.3263499 L15.1641685,30.3263499 L15.1641685,35.5547045 L0.389603261,35.5547045 L0.389603261,0.554975699 Z M22.9359946,0.554975699 L31.1935598,0.554975699 L37.3057772,35.5547045 L30.6268641,35.5547045 L29.5339511,28.1658728 L24.717038,28.1658728 L23.5836467,35.5547045 L16.7428207,35.5547045 L22.9359946,0.554975699 Z M28.8458207,23.5424519 L27.1052554,9.8882367 L25.3646902,23.5424519 L28.8458207,23.5424519 Z" id="path-3"></path>
        <path d="M42.6489076,0.554975699 L51.1898207,0.554975699 C54.4550834,0.554975699 57.0119346,1.17430627 58.8604511,2.41298599 C60.7089676,3.65166571 61.633212,5.99936067 61.633212,9.45614129 C61.633212,13.6906975 60.0275903,16.1248107 56.8162989,16.7585538 C58.7592651,17.0178124 60.216468,17.8819946 61.1879511,19.3511263 C62.1594342,20.8202581 62.6451685,22.8366832 62.6451685,25.4004622 C62.6451685,32.1699909 59.3394769,35.5547045 52.7279946,35.5547045 L42.6489076,35.5547045 L42.6489076,0.554975699 Z M51.3112554,14.5548672 C52.849437,14.5548672 53.895115,14.1803883 54.4483207,13.4314191 C55.0015263,12.68245 55.278125,11.515804 55.278125,9.93144625 C55.278125,8.548734 54.9273169,7.50451385 54.2256902,6.79875447 C53.5240635,6.0929951 52.4986245,5.7401207 51.1493424,5.7401207 L49.8945163,5.7401207 L49.8945163,14.5548672 L51.3112554,14.5548672 Z M51.4326902,30.1535118 C52.9708718,30.1535118 54.0570276,29.7430252 54.6911902,28.9220398 C55.3253528,28.1010544 55.6424293,26.8119827 55.6424293,25.0547858 C55.6424293,23.067137 55.3253528,21.6700424 54.6911902,20.8634603 C54.0570276,20.0568782 52.9573792,19.6535931 51.392212,19.6535931 L49.8945163,19.6535931 L49.8945163,30.1535118 L51.4326902,30.1535118 Z" id="path-4"></path>
    </defs>
    <g id="Page-1" stroke="none" stroke-width="1" fill="none" fill-rule="evenodd">
        <g id="altlogo_black-copy" fill="#000000">
            <g id="ALT" transform="translate(0.000000, 2.000000)">
                <g id="AL">
                    <use xlink:href="#path-1"></use>
                    <use xlink:href="#path-1"></use>
                </g>
                <g id="T">
                    <use xlink:href="#path-2"></use>
                    <use xlink:href="#path-2"></use>
                </g>
            </g>
            <g id="LAB-Copy-Copy" transform="translate(129.500000, 32.000000) rotate(-90.000000) translate(-129.500000, -32.000000) translate(98.000000, 14.000000)">
                <g id="LA">
                    <use xlink:href="#path-3"></use>
                    <use xlink:href="#path-3"></use>
                </g>
                <g id="B">
                    <use xlink:href="#path-4"></use>
                    <use xlink:href="#path-4"></use>
                </g>
            </g>
        </g>
    </g>
</svg>
